X:1
T:I Can Hew
T:Dance: I Can Hew
C:David Dodds
M:3/4
L:1/8
K:Am
%
AB | c2 A2 ee | e<e d2 cd |
w: I can hew, boys, I can hack it out; I can
%
e>e  ee  dc | AG A2 AB |
w: hew the coal,_ I can dance and shout. I can
%
c2 A2 ee | e<e d2 cd |
w: hew, boys, coal that's black and fine; I'm a
%
e>e ee dc | AG A2 |]
w: col- lier lad_ work- in' down the mine.
